usr/share/icons/biglinux-icons-material-dark/22/actions/mail-mark-task.svg

<svg xmlns="http://www.w3.org/2000/svg" viewBox="0 0 22 22">
  <defs id="defs3051">
    <style type="text/css" id="current-color-scheme">
      .ColorScheme-Text {
        color:#dedede;
      }
      </style>
  </defs>
 <path 
    style="fill:currentColor;fill-opacity:1;stroke:none" 
    d="M 3 3 L 3 7 L 7 7 L 7 3 L 3 3 z M 8 3 L 8 4 L 20 4 L 20 3 L 8 3 z M 8 6 L 8 7 L 15 7 L 15 6 L 8 6 z M 3 9 L 3 13 L 7 13 L 7 9 L 3 9 z M 8 9 L 8 10 L 20 10 L 20 9 L 8 9 z M 8 12 L 8 13 L 12 13 L 12 12 L 8 12 z M 19.292969 12.613281 L 14.701172 17.205078 L 13.554688 16.058594 L 12.847656 16.765625 L 14.693359 18.613281 L 14.699219 18.605469 L 14.707031 18.613281 L 20 13.320312 L 19.292969 12.613281 z M 3 15 L 3 19 L 7 19 L 7 15 L 3 15 z "
    class="ColorScheme-Text"
    />  
</svg>

<svg xmlns="http://www.w3.org/2000/svg" viewBox="0 0 22 22">
<defs id="defs3051">
<style id="current-color-scheme" type="text/css">
.ColorScheme-Text{color:#dedede}
</style>
</defs>
<path d="M3 3v4h4V3zm5 0v1h12V3zm0 3v1h7V6zM3 9v4h4V9zm5 0v1h12V9zm0 3v1h4v-1zm11.293.613-4.592 4.592-1.146-1.146-.707.707 1.845 1.847.006-.008.008.008L20 13.32zM3 15v4h4v-4z" class="ColorScheme-Text" style="fill:currentColor;fill-opacity:1;stroke:none"/>
</svg>
